X: 15296
T: Girls Of Banbridge, The
R: jig
M: 6/8
K: Dmajor
|:DFA dcd|BAG FED|FAD FAD|CEA, CEA,|
DFA dcd|BAG FED|fdf gec|1 edd d2A:|2 edd d2B||
|:AFA def|gfg efg|f2g fed|cee e2B|
AFA def|gfg efg|faf gec|1 edd d3:|2 edd d||
|:fg|a3 d'2f|g3 gfg|a2b agf|efe ecA|
a3 d'2f|g3 gfg|bag fge|1 d4d:|2 d4 AF||

